!!!COM: Stravinsky, Igor (Fyodorovich)
!!!OTL: Svadebka (The Wedding) for Soloists, Choir, Four Pianos and Percussion
!!!OMV: Scene 3: Departure of the Bride
!!!example: 375
!!!work: Str-14
**kern	**dynam	**kern	**dynam	**kern	**dynam	**kern	**kern	**kern	**dynam	**kern	**kern	**dynam	**kern	**kern	**dynam	**kern	**kern	**dynam	**kern	**kern	**kern	**kern	**kern	**kern	**kern
*part15	*part15	*part14	*part14	*part13	*part13	*part12	*part11	*part11	*part11	*part10	*part10	*part10	*part9	*part9	*part9	*part8	*part8	*part8	*part7	*part6	*part5	*part4	*part3	*part2	*part1
*staff19	*	*staff18	*	*staff17	*	*staff16	*staff15	*staff14	*	*staff13	*staff12	*	*staff11	*staff10	*	*staff9	*staff8	*	*staff7	*staff6	*staff5	*staff4	*staff3	*staff2	*staff1
*I"Snare Drum	*	*I"Percussion	*	*I"Xylophone	*	*I"Timpani	*I"Piano	*	*	*I"Piano	*	*	*I"Piano	*	*	*I"Piano	*	*	*I"Bass	*I"Tenor	*I"Tenor	*I"Bass	*I"Tenor	*I"Alto	*I"Soprano
*I'S. D.	*	*I'Perc.	*	*I'Xyl.	*	*I'Timp.	*I'Pno.	*	*	*I'Pno.	*	*	*I'Pno.	*	*	*I'Pno.	*	*	*I'B.	*I'T.	*I'T.	*I'B.	*I'T.	*I'A.	*I'S.
*clefpercussion0	*	*clefpercussion0	*	*clefG2	*	*clefF4	*clefG2	*clefG2	*	*clefG2	*clefG2	*	*clefG2	*clefG2	*	*clefG2	*clefG2	*	*clefF4	*clefGv2	*clefGv2	*clefF4	*clefGv2	*clefG2	*clefG2
*	*	*	*	*k[]	*	*	*k[]	*k[]	*	*k[]	*k[]	*	*k[]	*k[]	*	*k[]	*k[]	*	*k[]	*k[]	*k[]	*k[]	*k[]	*k[]	*k[]
*	*	*	*	*C:	*	*	*C:	*C:	*	*C:	*C:	*	*C:	*C:	*	*C:	*C:	*	*C:	*C:	*C:	*C:	*C:	*C:	*C:
*M2/4	*	*M2/4	*	*M2/4	*	*M2/4	*M2/4	*M2/4	*	*M2/4	*M2/4	*	*M2/4	*M2/4	*	*M2/4	*M2/4	*	*M2/4	*M2/4	*M2/4	*M2/4	*M2/4	*M2/4	*M2/4
*MM121	*	*MM121	*	*MM121	*	*MM121	*MM121	*MM121	*	*MM121	*MM121	*	*MM121	*MM121	*	*MM121	*MM121	*	*MM121	*MM121	*MM121	*MM121	*MM121	*MM121	*MM121
=81	=81	=81	=81	=81	=81	=81	=81	=81	=81	=81	=81	=81	=81	=81	=81	=81	=81	=81	=81	=81	=81	=81	=81	=81	=81
2r	.	2r	.	2r	.	2r	2r	2r	.	8ccL	8ggL	.	2r	2r	.	8ccL	8f#XL 8ff#X	.	2r	8cL	8eL	2r	2r	2r	2r
.	.	.	.	.	.	.	.	.	.	8gJ	8aaJ	.	.	.	.	8gJ	8eJ 8ee	.	.	8BJ	8dJ	.	.	.	.
.	.	.	.	.	.	.	.	.	.	8dL	8bbL	.	.	.	.	8dL	8dL 8dd	.	.	8AL	8AL	.	.	.	.
.	.	.	.	.	.	.	.	.	.	8AJ	8eeJ	.	.	.	.	8AJ	8aJ	.	.	8eJ	8gJ	.	.	.	.
=82	=82	=82	=82	=82	=82	=82	=82	=82	=82	=82	=82	=82	=82	=82	=82	=82	=82	=82	=82	=82	=82	=82	=82	=82	=82
4r	.	4r	.	4r	.	4r	4r	4r	.	8dL	8ff#XL	.	4r	4r	.	8dL	8gL 8gg	.	2r	(4d	(4f#X	2r	4.r	8eeL	8ggL
.	.	.	.	.	.	.	.	.	.	8gJ	8ggJ	.	.	.	.	8gJ	8f#XJ 8ff#X	.	.	.	.	.	.	8ddJ	8ff#XJ
8r	.	8r	.	8r	.	8r	8r	8r	.	8ccL	8aaL	.	8r	8r	.	8ccL	8eL 8ee	.	.	8cL)	8eL)	.	.	8ccL	8eeL
8x^^	sf	8x^^	sf	8ccc^^ 8fff	sf	8BB	[8B [8d#X [8f#X [8a	[8ffn [8aa [8ccc [8fff	???	8gJ	8bbJ	.	[8B [8d#X [8f#X [8a	[8a [8ffn [8aa	???	8gJ	8dJ 8dd	.	.	(8dJ	(8dJ	.	(8d	8bJ	8ddJ
=83	=83	=83	=83	=83	=83	=83	=83	=83	=83	=83	=83	=83	=83	=83	=83	=83	=83	=83	=83	=83	=83	=83	=83	=83	=83
2r	.	2r	.	2r	.	2r	2r	2r	.	8dL	8eeL	.	2r	2r	.	8dL	8aL	.	2r	[2A)	[2a)	2r	[2a	8aL	8aL
.	.	.	.	.	.	.	.	.	.	8AJ	8ff#XJ	.	.	.	.	8AJ	8gJ 8gg	.	.	.	.	.	.	8eeJ	8ggJ
.	.	.	.	.	.	.	.	.	.	8dL	8ggL	.	.	.	.	8dL	8f#XL 8ff#X	.	.	.	.	.	.	8ddL	8ff#XL
.	.	.	.	.	.	.	.	.	.	8gJ	8aaJ	.	.	.	.	8gJ	8eJ 8ee	.	.	.	.	.	.	8ccJ	8eeJ
=84	=84	=84	=84	=84	=84	=84	=84	=84	=84	=84	=84	=84	=84	=84	=84	=84	=84	=84	=84	=84	=84	=84	=84	=84	=84
2r	.	2r	.	2r	.	2r	2r	2r	.	8ccL	8bbL	.	2r	2r	.	8ccL	8dL 8dd	.	2r	8A]	8a]	2r	8a])	8bL	8ddL
.	.	.	.	.	.	.	.	.	.	8gJ	8eeJ	.	.	.	.	8gJ	8aJ	.	.	8r	8r	.	8r	8aJ	8aJ
.	.	.	.	.	.	.	.	.	.	8dL	8ff#XL	.	.	.	.	8dL	8gL 8gg	.	.	4r	4r	.	4r	(8eeL	(8ggL
.	.	.	.	.	.	.	.	.	.	8AJ	8ggJ	.	.	.	.	8AJ	8f#XJ 8ff#X	.	.	.	.	.	.	8ddJ	8ff#XJ
=85	=85	=85	=85	=85	=85	=85	=85	=85	=85	=85	=85	=85	=85	=85	=85	=85	=85	=85	=85	=85	=85	=85	=85	=85	=85
2r	.	2r	.	2r	.	2r	2r	2r	.	8dL	8aaL	.	2r	2r	.	8dL	8eL 8ee	.	2r	2r	2r	2r	2r	8ccL)	8eeL)
.	.	.	.	.	.	.	.	.	.	8gJ	8eeJ	.	.	.	.	8gJ	8dJ 8dd	.	.	.	.	.	.	8bJ	8ddJ
.	.	.	.	.	.	.	.	.	.	8ccL	8ff#XL	.	.	.	.	8ccL	8aL	.	.	.	.	.	.	8aL	8aL
.	.	.	.	.	.	.	.	.	.	8gJ	8ggJ	.	.	.	.	8gJ	8gJ 8gg	.	.	.	.	.	.	8eeJ	8ggJ
=86	=86	=86	=86	=86	=86	=86	=86	=86	=86	=86	=86	=86	=86	=86	=86	=86	=86	=86	=86	=86	=86	=86	=86	=86	=86
4r	.	4r	.	4r	.	4r	4r	4r	.	8dL	8aaL	.	4r	4r	.	8dL	8f#XL 8ff#X	.	2r	2r	2r	2r	2r	(4dd	(4ff#X
.	.	.	.	.	.	.	.	.	.	8AJ	8bbJ	.	.	.	.	8AJ	8eJ 8ee	.	.	.	.	.	.	.	.
8r	.	8r	.	8r	.	8r	8r	8r	.	[8dL	8r	.	8r	8r	.	8d	8dL 8dd	.	.	.	.	.	.	8ccL)	8eeL)
8x^^	sf	8x^^	sf	8ccc^^ 8fff	sf	8BB	8B 8d#X 8f#X 8a	8ffn 8aa 8ccc 8fff	???	8dJ] 8f#X 8a 8cc	8ffn 8aa 8ccc 8eee 8gggn	.	8B 8d#X 8f#X 8a	8a 8ffn 8aa	???	8r	8aJ	.	.	.	.	.	.	(8bJ	(8ddJ
*	*	*	*	*	*	*	*clefF4	*	*	*clefF4	*clefF4	*	*clefF4	*	*	*clefF4	*	*	*	*	*	*	*	*	*
=87	=87	=87	=87	=87	=87	=87	=87	=87	=87	=87	=87	=87	=87	=87	=87	=87	=87	=87	=87	=87	=87	=87	=87	=87	=87
*M3/4	*	*M3/4	*	*M3/4	*	*M3/4	*M3/4	*M3/4	*	*M3/4	*M3/4	*	*M3/4	*M3/4	*	*M3/4	*M3/4	*	*M3/4	*M3/4	*M3/4	*M3/4	*M3/4	*M3/4	*M3/4
2.r	.	2.r	.	2.r	.	2.r	8EL 8e	8ggL 8aa	.	8GGG^L 8GG	8G^L	ff	8EL 8e	8ggL 8aa	.	8GGL 8G	8gL	ff	8GL	8eL	8gL	8GL	8gL	2.a)	2.aa)
.	.	.	.	.	.	.	8DJ 8d	8ff#XJ	.	8AAA^J 8AA	8A^J	.	8DJ 8d	8ff#XJ	.	8AAJ 8A	8aJ	.	8F#XJ	8dJ	8f#XJ	8F#XJ	8f#XJ	.	.
.	.	.	.	.	.	.	8CL 8c	8eeL 8aa	.	8BBB^L 8BB	8B^L	.	8CL 8c	8eeL 8aa	.	8BBL 8B	8bL	.	8EL	8cL	8eL	8EL	8eL	.	.
.	.	.	.	.	.	.	8BBJ 8B	8ddJ	.	8CC^J 8C	8c^J	.	8BBJ 8B	8ddJ	.	8CJ 8c	8ccJ	.	8DJ	8BJ	8dJ	8DJ	8dJ	.	.
.	.	.	.	.	.	.	8AAL 8A	8aL 8aa	.	8DD^L 8D	8d^L	.	8AAL 8A	8aL 8aa	.	8DDL 8D	8dL 8dd	.	(8AAL	(8AL	(8AL	(8AAL	(8AL	.	.
.	.	.	.	.	.	.	8EJ 8e	8ggJ 8aa	.	8CC#X^J 8C#X	8e^J	.	8EJ 8e	8ggJ 8aa	.	8CC#XJ 8C#X	8eJ 8cc#X 8ee	.	8GJ)	8eJ)	8gJ)	8GJ)	8gJ)	.	.
=	=	=	=	=	=	=	=	=	=	=	=	=	=	=	=	=	=	=	=	=	=	=	=	=	=
*-	*-	*-	*-	*-	*-	*-	*-	*-	*-	*-	*-	*-	*-	*-	*-	*-	*-	*-	*-	*-	*-	*-	*-	*-	*-
!!!system-decoration: [(s1,s2,s3,s4,s5,s6,s7)]{(s8,s9)}{(s10,s11)}{(s12,s13)}{(s14,s15)}[(s16)][(s17,s18,s19)]
!!!CDT: 1882/06/17-1971/04/06
!!!CBL: Lomonosov (Oranienbaum), Russia
!!!CDL: New York, United States
!!!CNT: Russian, French, American
!!!AGN: Stage; Opera
!!!MCN: Ansermet, Ernest
!!!MDT: 1923/06/13
!!!MGN: Ballets Russes
!!!MLC: Paris, France
!!!MPD: 1923
!!!MPN: Auric, Georges; Flament, Edouard; Leon, Helene; Meyer, Marcelle
!!!ODT: 1923
!!!PDT: 1923
!!!excerpt-start-measure: 81
!!!excerpt-end-measure: 87
!!!excerpt-start-time: 1:20
!!!excerpt-end-time: 1:26
!!!EEV: 2020/01/22
!!!ONB: Converted from MusicXML on 2020/01/22
